apps/hassgraph/images/img_fbe29b76.svg

<svg width="240" height="240" viewBox="0 0 240 240" fill="none" xmlns="http://www.w3.org/2000/svg">
<path d="M240 224.762C240 233.012 233.25 239.762 225 239.762H15C6.75 239.762 0 233.012 0 224.762V134.762C0 126.512 4.77 114.993 10.61 109.153L109.39 10.3725C115.22 4.5425 124.77 4.5425 130.6 10.3725L229.39 109.162C235.22 114.992 240 126.522 240 134.772V224.772V224.762Z" fill="#F2F4F9"/>
<path d="M229.39 109.153L130.61 10.3725C124.78 4.5425 115.23 4.5425 109.4 10.3725L10.61 109.153C4.78 114.983 0 126.512 0 134.762V224.762C0 233.012 6.75 239.762 15 239.762H107.27L66.64 199.132C64.55 199.852 62.32 200.262 60 200.262C48.7 200.262 39.5 191.062 39.5 179.762C39.5 168.462 48.7 159.262 60 159.262C71.3 159.262 80.5 168.462 80.5 179.762C80.5 182.092 80.09 184.322 79.37 186.412L111 218.042V102.162C104.2 98.8225 99.5 91.8425 99.5 83.7725C99.5 72.4725 108.7 63.2725 120 63.2725C131.3 63.2725 140.5 72.4725 140.5 83.7725C140.5 91.8425 135.8 98.8225 129 102.162V183.432L160.46 151.972C159.84 150.012 159.5 147.932 159.5 145.772C159.5 134.472 168.7 125.272 180 125.272C191.3 125.272 200.5 134.472 200.5 145.772C200.5 157.072 191.3 166.272 180 166.272C177.5 166.272 175.12 165.802 172.91 164.982L129 208.892V239.772H225C233.25 239.772 240 233.022 240 224.772V134.772C240 126.522 235.23 115.002 229.39 109.162V109.153Z" fill="#18BCF2"/>
</svg>

<svg fill="none" height="240" viewBox="0 0 240 240" width="240" xmlns="http://www.w3.org/2000/svg"><path d="m240 224.762c0 8.25-6.75 15-15 15h-210c-8.25 0-15-6.75-15-15v-90c0-8.25 4.77-19.769 10.61-25.609l98.78-98.7805c5.83-5.83 15.38-5.83 21.21 0l98.79 98.7895c5.83 5.83 10.61 17.36 10.61 25.61v90z" fill="#f2f4f9"/><path d="m229.39 109.153-98.78-98.7805c-5.83-5.83-15.38-5.83-21.21 0l-98.79 98.7805c-5.83 5.83-10.61 17.359-10.61 25.609v90c0 8.25 6.75 15 15 15h92.27l-40.63-40.63c-2.09.72-4.32 1.13-6.64 1.13-11.3 0-20.5-9.2-20.5-20.5s9.2-20.5 20.5-20.5 20.5 9.2 20.5 20.5c0 2.33-.41 4.56-1.13 6.65l31.63 31.63v-115.88c-6.8-3.3395-11.5-10.3195-11.5-18.3895 0-11.3 9.2-20.5 20.5-20.5s20.5 9.2 20.5 20.5c0 8.07-4.7 15.05-11.5 18.3895v81.27l31.46-31.46c-.62-1.96-.96-4.04-.96-6.2 0-11.3 9.2-20.5 20.5-20.5s20.5 9.2 20.5 20.5-9.2 20.5-20.5 20.5c-2.5 0-4.88-.47-7.09-1.29l-43.91 43.91v30.88h96c8.25 0 15-6.75 15-15v-90c0-8.25-4.77-19.77-10.61-25.61z" fill="#18bcf2"/></svg>
